src/assets/signalingBadge.svg

<svg width="24" height="24" viewBox="0 0 24 24" fill="none" xmlns="http://www.w3.org/2000/svg">
<circle cx="12" cy="12" r="11.7" fill="#FFFBE5" fill-opacity="0.6" stroke="#FFDD0F" stroke-width="0.6"/>
<path fill-rule="evenodd" clip-rule="evenodd" d="M11.9408 3.34141C12.3638 3.3391 12.7864 3.44854 13.1622 3.66691L18.5846 6.81687C19.3207 7.24458 19.7776 8.03961 19.7776 8.8943L19.7593 15.1114L19.7776 15.1111C19.7776 15.558 19.6551 15.9891 19.4326 16.3599C19.2239 16.7214 18.922 17.0293 18.5468 17.2444L14.8788 19.3467L13.1721 20.3381C12.8054 20.556 12.3879 20.6755 11.9592 20.6755C11.9531 20.6755 11.9469 20.6755 11.9408 20.6755C11.9346 20.6755 11.9284 20.6755 11.9223 20.6755C11.4936 20.6755 11.0761 20.556 10.7094 20.3381L9.00273 19.3467L5.3347 17.2444C4.95957 17.0294 4.65766 16.7214 4.44894 16.3599C4.22638 15.9891 4.10391 15.558 4.10391 15.1111L4.12224 15.1114L4.10393 8.8943C4.10393 8.03961 4.56086 7.24458 5.29692 6.81687L10.7193 3.66691C11.0951 3.44854 11.5177 3.3391 11.9408 3.34141ZM11.9408 3.95464C11.9313 3.95539 11.9221 3.95578 11.9131 3.95578C11.6027 3.95578 11.299 4.03966 11.0186 4.20102L5.60645 7.35042C5.05831 7.67091 4.72069 8.26158 4.72061 8.89406L4.73908 15.166C4.73908 15.5393 4.85993 15.8988 5.07239 16.1968C5.21262 16.383 5.38985 16.543 5.59719 16.6642L8.45322 18.3233L11.076 19.824C11.3058 19.9604 11.5656 20.0412 11.8287 20.0567C11.8568 20.0581 11.8849 20.0588 11.913 20.0588L11.9176 20.0589C11.9253 20.0591 11.9331 20.0593 11.9408 20.0594C11.9485 20.0593 11.9562 20.0591 11.9639 20.0589L11.9685 20.0588C11.9966 20.0588 12.0247 20.0581 12.0528 20.0567C12.3159 20.0412 12.5757 19.9604 12.8055 19.824L15.4283 18.3233L18.2843 16.6642C18.4917 16.543 18.6689 16.383 18.8091 16.1968C19.0216 15.8988 19.1424 15.5393 19.1424 15.166L19.1609 8.89406C19.1608 8.26158 18.8232 7.67091 18.2751 7.35042L12.8629 4.20102C12.5825 4.03966 12.2788 3.95578 11.9685 3.95578C11.9595 3.95578 11.9502 3.95539 11.9408 3.95464Z" fill="#FFDD0F" fill-opacity="0.4"/>
<path fill-rule="evenodd" clip-rule="evenodd" d="M11.9274 17.4794C11.6427 17.4787 11.3643 17.4073 11.1242 17.2616L7.77249 15.3133C7.2767 15.0241 6.97675 14.4969 6.97675 13.9287L6.98598 10.0578L6.98601 10.0551C6.98625 10.0422 6.98663 10.0292 6.98717 10.0163C6.98036 10.0394 6.97675 10.0626 6.97675 10.0859C6.97675 9.77366 7.06735 9.47377 7.23126 9.21896C7.36773 8.99847 7.55737 8.80986 7.79073 8.67373L9.51636 7.68766L11.1249 6.75266C11.3738 6.60459 11.6571 6.5324 11.9408 6.53553C12.2244 6.5324 12.5077 6.60459 12.7566 6.75266L14.3651 7.68766L16.0908 8.67373C16.3241 8.80986 16.5138 8.99847 16.6502 9.21897C16.8142 9.47377 16.9048 9.77366 16.9048 10.0859C16.9048 10.0626 16.9011 10.0394 16.8943 10.0163C16.8949 10.0292 16.8953 10.0422 16.8955 10.0551L16.8955 10.0578L16.9048 13.9287C16.9048 14.4969 16.6048 15.0241 16.109 15.3133L12.7573 17.2616C12.5172 17.4073 12.2388 17.4787 11.9541 17.4794L11.9408 17.4594L11.9274 17.4794ZM12.4231 16.7372C12.4268 16.735 12.4305 16.7328 12.4342 16.7306L12.4374 16.7286L15.7906 14.7795C16.0885 14.6071 16.2787 14.2754 16.2788 13.9291L16.2696 10.0586C16.2696 9.7447 16.1131 9.44678 15.8496 9.25787C15.8352 9.24999 15.8217 9.24238 15.8091 9.23506L15.1389 8.8455L12.4042 7.28286C12.2652 7.19506 12.1102 7.15477 11.9408 7.15206C11.7713 7.15477 11.6163 7.19506 11.4773 7.28286L8.74263 8.8455L8.07246 9.23506C8.05981 9.24238 8.04626 9.24998 8.03192 9.25787C7.76836 9.44677 7.6119 9.7447 7.6119 10.0586L7.60267 13.9291C7.6028 14.2754 7.79299 14.6071 8.09093 14.7795L11.4441 16.7286L11.4473 16.7306C11.451 16.7328 11.4547 16.735 11.4584 16.7372L11.4523 16.728C11.6004 16.8138 11.7629 16.8611 11.9408 16.8626C12.1186 16.8611 12.2811 16.8138 12.4292 16.728L12.4231 16.7372Z" fill="#FFDD0F"/>
</svg>

<svg width="24" height="24" fill="none" xmlns="http://www.w3.org/2000/svg"><circle cx="12" cy="12" r="11.7" fill="#FFFBE5" fill-opacity=".6" stroke="#FFDD0F" stroke-width=".6"/><path fill-rule="evenodd" clip-rule="evenodd" d="M11.94 3.341c.424-.002.846.108 1.222.326l5.423 3.15a2.408 2.408 0 011.193 2.077l-.019 6.217h.019c0 .447-.123.878-.345 1.249-.21.361-.511.67-.886.884l-3.668 2.103-1.707.991a2.375 2.375 0 01-1.213.337h-.037c-.428 0-.846-.119-1.213-.337l-1.706-.991-3.668-2.103a2.402 2.402 0 01-.886-.884 2.427 2.427 0 01-.345-1.249h.018l-.018-6.217c0-.854.457-1.65 1.193-2.077l5.422-3.15a2.405 2.405 0 011.222-.326zm0 .614a1.784 1.784 0 00-.922.246l-5.412 3.15c-.548.32-.885.91-.885 1.543l.018 6.272c0 .373.12.733.333 1.03.14.187.318.347.525.468l2.856 1.66 2.623 1.5a1.674 1.674 0 00.837.235h.005a1.795 1.795 0 00.046 0h.005c.028 0 .056 0 .084-.002.263-.016.523-.097.752-.233l2.623-1.5 2.856-1.66c.208-.121.385-.281.525-.467.213-.298.333-.658.333-1.031l.019-6.272c0-.632-.338-1.223-.886-1.544l-5.412-3.149a1.784 1.784 0 00-.922-.246z" fill="#FFDD0F" fill-opacity=".4"/><path fill-rule="evenodd" clip-rule="evenodd" d="M11.927 17.48c-.284-.001-.563-.073-.803-.218l-3.352-1.949a1.601 1.601 0 01-.795-1.384l.009-3.871v-.003l.001-.039a.245.245 0 00-.01.07c0-.312.09-.612.254-.867.137-.22.326-.41.56-.545l1.725-.986 1.609-.935c.249-.148.532-.22.816-.217.283-.004.567.069.816.217l1.608.935 1.726.986c.233.136.423.324.56.545a1.6 1.6 0 01.254.867.246.246 0 00-.01-.07v.042l.01 3.87c0 .569-.3 1.096-.796 1.385l-3.352 1.949c-.24.145-.518.217-.803.217l-.013-.02-.014.02zm.496-.743l.011-.006.003-.002 3.354-1.95a.994.994 0 00.488-.85l-.01-3.87a.99.99 0 00-.42-.801 1.82 1.82 0 01-.04-.023l-.67-.39-2.735-1.562a.874.874 0 00-.463-.13.874.874 0 00-.464.13L8.743 8.845l-.67.39a2.171 2.171 0 01-.041.023.99.99 0 00-.42.8l-.01 3.871c0 .346.191.678.489.85l3.353 1.95.003.002.011.006-.006-.009c.148.086.31.133.489.135a.976.976 0 00.488-.135l-.006.01z" fill="#FFDD0F"/></svg>
